X:640
T:The farewell
R:Jig
O:Scotland, England
B:Aird's Airs and Melodies vol 2
S:Richard Robinson
Z:Transcription:Richard Robinson(?),slight rearrangement, chords:Mike Long
M:6/8
L:1/8
K:D
"D"d2A FAF|D2A FAF|d2A FAF|"G"BGE "A"E3|\
"D"d2A FAF|D2A FAF|"G"(B/c/d)B "A"cec|"D"dAF D3:|
|:"D"ded faf|"A"ece "G"g2e|"D"ded faf|"A"ecA A3|\
"D"ded faf|"A"ece "G"gfg|"D"agf "A"edc|"D"dAF D3:|
